X:1
T:Olim locus colueram 
T:het lied van de gans uit In Taberna
T:Carl Orff
%%score 1 2 3
L:1/8
M:4/4
K:C
V:1 treble-8 nm="Tenor" snm="T."
V:2 treble-8 nm="Bariton" snm="Bar."
V:3 bass nm="Bas" snm="B."
V:1
!ff! !>!d4 !>!d4 | z !>!d2 !>!d2 !>!^c2 !>!d | !>!e4 !>!e4 | z2 !>!e2 !>!d2 !>!e2 | %4
w: Mi- ser!|Mi- ser mo- do|ni- ger,|et us- tus|
 !>!^f3 !>!f!<(!!<(! (!>!f4!<)!!<)! | f8) || %6
w: for- ti- ter!|_|
V:2
!ff! !>!B4 !>!B4 | z !>!B2 !>!B2 !>!A2 !>!B | !>!^c4 !>!c4 | z2 !>!^c2 !>!B2 !>!c2 | %4
w: Mi- ser!|Mi- ser mo- do|ni- ger,|et us- tus|
 !>!^c3 !>!c (!>!c4 | c8) || %6
w: for- ti- ter!|_|
V:3
!ff! G,4 G,4 | z !>!G,2 !>!G,2 !>!^F,2 !>!G, | !>!A,4 !>!A,4 | z2 !>!A,2 !>!G,2 !>!A,2 | %4
w: Mi- ser!|Mi- ser mo- do|ni- ger,|et us- tus|
 !>!^F,3 !>!F,!<(! (!>!F,4!<)! | F,8) || %6
w: for- ti- ter!|_|

